public/icons/05.svg

<svg width="45" height="27" viewBox="0 0 45 27" fill="none" xmlns="http://www.w3.org/2000/svg">
<path d="M3.97816 26.7314L0.0931645 22.8464V4.82144L3.97816 0.936444H16.9282L20.8132 4.82144V22.8464L16.9282 26.7314H3.97816ZM7.86316 21.7614H13.0432L14.2682 20.5364V7.13145L13.0432 5.90644H7.86316L6.63817 7.13145V20.5364L7.86316 21.7614ZM27.8616 26.7314L24.1516 23.3014V18.4014H30.9766V20.7114L31.9916 21.7614H36.8216L37.8716 20.7114V15.9514L36.8216 14.9014H24.3616V0.936444H43.6816V6.11644H31.3616V10.3164H41.2316L44.9066 13.7464V23.3014L41.2316 26.7314H27.8616Z" fill="url(#paint0_linear_1343_338)"/>
<defs>
<linearGradient id="paint0_linear_1343_338" x1="-2" y1="-5.76656" x2="29.3793" y2="29.3436" gradientUnits="userSpaceOnUse">
<stop stop-color="#E42BC8"/>
<stop offset="1" stop-color="#5670FD"/>
</linearGradient>
</defs>
</svg>

<svg width="45" height="27" fill="none" xmlns="http://www.w3.org/2000/svg"><path d="M3.978 26.731.093 22.846V4.821L3.978.936h12.95l3.885 3.885v18.025l-3.885 3.885H3.978zm3.885-4.97h5.18l1.225-1.225V7.131l-1.225-1.225h-5.18L6.638 7.131v13.405l1.225 1.225zm19.999 4.97-3.71-3.43v-4.9h6.825v2.31l1.015 1.05h4.83l1.05-1.05v-4.76l-1.05-1.05h-12.46V.936h19.32v5.18h-12.32v4.2h9.87l3.675 3.43v9.555l-3.675 3.43h-13.37z" fill="url(#a)"/><defs><linearGradient id="a" x1="-2" y1="-5.767" x2="29.379" y2="29.344" gradientUnits="userSpaceOnUse"><stop stop-color="#E42BC8"/><stop offset="1" stop-color="#5670FD"/></linearGradient></defs></svg>
